public/library/token-pocket-text-dark.svg

<svg width="163" height="80" viewBox="0 0 163 80" fill="none" xmlns="http://www.w3.org/2000/svg">
<path d="M122.547 65.4931C122.53 65.4756 122.503 65.4492 122.486 65.4316C121.045 63.8939 119.032 62.9448 116.8 62.9448C112.424 62.9448 108.874 66.6179 108.874 71.1522C108.874 75.6864 112.424 79.3595 116.8 79.3595C119.085 79.3595 121.15 78.3577 122.6 76.7497C122.6 76.7497 122.618 76.7409 122.609 76.7409C122.213 76.2312 120.298 74.3859 120.298 74.3859H120.227C119.375 75.3525 118.162 75.9676 116.8 75.9676C114.235 75.9676 112.152 73.8147 112.152 71.1522C112.152 68.4984 114.235 66.3367 116.8 66.3367C118.162 66.3367 119.384 66.9606 120.227 67.9272" fill="white"/>
<path d="M100.052 62.9448C95.5789 62.9448 91.9497 66.6531 91.9497 71.2225C91.9497 75.7918 95.5789 79.5001 100.052 79.5001C104.524 79.5001 108.153 75.7918 108.153 71.2225C108.162 66.6443 104.533 62.9448 100.052 62.9448ZM100.052 76.073C97.4242 76.073 95.2977 73.9026 95.2977 71.2225C95.2977 68.5423 97.4242 66.3719 100.052 66.3719C102.679 66.3719 104.806 68.5423 104.806 71.2225C104.806 73.9026 102.679 76.073 100.052 76.073Z" fill="white"/>
<path d="M162.863 62.9448V66.6355H158.883V79.3507H155.069V66.6355H151.062V62.9448H162.863V62.9448Z" fill="white"/>
<path d="M127.758 62.9448V70.6513L132.793 62.9448H136.396L131.66 70.1416L137.363 79.3507H133.215L129.129 73.5687L127.749 75.5897V79.3507H124.05V62.9448H127.758Z" fill="white"/>
<path d="M149.568 66.0731H141.914V69.4386H147.933V72.5318H141.914V76.117H149.568V79.3595H138.083V62.9448H149.568V66.0731Z" fill="white"/>
<path d="M85.5437 62.9448H81.8618H78.092V78.9113V79.3595H81.8618V78.9113V75.4755H85.5437C88.4435 75.4755 90.7985 72.6724 90.7985 69.2102C90.7985 65.748 88.4435 62.9448 85.5437 62.9448ZM84.0235 72.0748H81.8618V66.1698H84.0235C85.7282 66.1698 87.556 66.8288 87.556 69.1223C87.556 71.3015 85.737 72.0748 84.0235 72.0748Z" fill="white"/>
<path d="M20.2635 62.9448C15.7908 62.9448 12.1616 66.6531 12.1616 71.2225C12.1616 75.7918 15.7908 79.5001 20.2635 79.5001C24.7362 79.5001 28.3654 75.7918 28.3654 71.2225C28.3654 66.6443 24.7362 62.9448 20.2635 62.9448ZM20.2635 76.073C17.6361 76.073 15.5096 73.9026 15.5096 71.2225C15.5096 68.5423 17.6361 66.3719 20.2635 66.3719C22.8909 66.3719 25.0174 68.5423 25.0174 71.2225C25.0174 73.9026 22.8909 76.073 20.2635 76.073Z" fill="white"/>
<path d="M11.8101 63.0151V66.7058H7.82948V79.421H4.00701V66.7058H0V63.0151H11.8101Z" fill="white"/>
<path d="M56.3959 66.1434H48.7421V69.5089H54.7614V72.6021H48.7421V76.1873H56.3959V79.4298H44.9109V63.0151H56.3959V66.1434Z" fill="white"/>
<path d="M70.7202 63.0151V79.421H67.504L61.2123 68.3402C61.2211 68.6214 61.2299 68.806 61.2387 68.8938C61.2738 69.175 61.2826 69.4123 61.2826 69.6056V79.4298H58.3477V63.0151H62.4074L67.8731 72.6899C67.8291 72.2066 67.8028 71.8464 67.8028 71.6003V63.0151H70.7202V63.0151Z" fill="white"/>
<path d="M33.2854 63.0151L33.303 69.7023L39.4541 62.9976L42.9163 62.9888L37.1694 70.1856L43.5226 79.4034L39.542 79.4122L34.7617 72.7427L33.3206 74.1311L33.3294 79.4298L29.7793 79.4386L29.7354 63.0239L33.2854 63.0151Z" fill="white"/>
<g clip-path="url(#clip0_2891_41182)">
<path d="M72.8832 0.1875H72.359H44.4083C43.0767 0.1875 42 1.26416 42 2.59582V12.3708C42 13.7024 43.0767 14.7791 44.4083 14.7791H50.9675H53.5741V17.6691V48.6089C53.5741 49.9406 54.6508 51.0172 55.9824 51.0172H66.239C67.5707 51.0172 68.6474 49.9406 68.6474 48.6089V17.6691V17.3999V14.7791H71.254H72.3165H72.8407C76.864 14.7791 80.1365 11.5066 80.1365 7.48329C80.179 3.45998 76.9065 0.1875 72.8832 0.1875Z" fill="white"/>
<path fill-rule="evenodd" clip-rule="evenodd" d="M100.594 0.1875C89.4589 0.1875 80.4207 9.22578 80.4207 20.3607C80.4207 20.3873 80.4207 20.4138 80.4208 20.4403V48.538C80.4208 49.8697 81.4975 50.9463 82.8291 50.9463H93.6241C94.9557 50.9463 96.0324 49.8697 96.0324 48.538V40.0207L96.0448 40.0236L96.0938 40.0312C96.6321 40.1587 97.1357 40.2504 97.7023 40.3354C98.4957 40.4487 99.3173 40.5196 100.139 40.5337L100.594 40.5336C100.99 40.5336 101.373 40.5198 101.756 40.5056C112.352 39.8965 120.767 31.1132 120.767 20.3607C120.781 9.22578 111.743 0.1875 100.594 0.1875ZM101.756 24.7524C101.387 24.8515 100.99 24.9079 100.594 24.9079C100.485 24.9079 100.389 24.9065 100.281 24.8938C97.9544 24.7406 96.1076 22.8342 96.0464 20.4811V20.3607C96.0464 17.8533 98.0864 15.8133 100.594 15.8133C103.101 15.8133 105.141 17.8533 105.141 20.3607C105.141 22.4716 103.711 24.2424 101.756 24.7524Z" fill="white"/>
</g>
<defs>
<clipPath id="clip0_2891_41182">
<rect width="78.75" height="51" fill="white" transform="translate(42)"/>
</clipPath>
</defs>
</svg>

<svg xmlns="http://www.w3.org/2000/svg" width="163" height="80" fill="none" viewBox="0 0 163 80"><path fill="#fff" d="m122.547 65.493-.061-.061c-1.441-1.538-3.454-2.487-5.686-2.487-4.376 0-7.926 3.673-7.926 8.207s3.55 8.207 7.926 8.207c2.285 0 4.35-1.001 5.8-2.61 0 0 .018-.008.009-.008-.396-.51-2.311-2.355-2.311-2.355h-.071c-.852.967-2.065 1.582-3.427 1.582-2.565 0-4.648-2.153-4.648-4.816 0-2.654 2.083-4.815 4.648-4.815 1.362 0 2.584.624 3.427 1.59M100.052 62.945c-4.473 0-8.102 3.708-8.102 8.277 0 4.57 3.629 8.278 8.102 8.278 4.472 0 8.101-3.708 8.101-8.278.009-4.578-3.62-8.277-8.101-8.277m0 13.128c-2.628 0-4.754-2.17-4.754-4.85s2.126-4.851 4.754-4.851 4.754 2.17 4.754 4.85-2.127 4.851-4.754 4.851M162.863 62.945v3.69h-3.98v12.716h-3.814V66.635h-4.007v-3.69zM127.758 62.945v7.706l5.035-7.706h3.603l-4.736 7.197 5.703 9.209h-4.148l-4.086-5.782-1.38 2.02v3.762h-3.699V62.945zM149.568 66.073h-7.654v3.366h6.019v3.093h-6.019v3.585h7.654v3.242h-11.485V62.945h11.485zM85.544 62.945h-7.452v16.414h3.77v-3.884h3.682c2.9 0 5.255-2.803 5.255-6.265s-2.356-6.265-5.255-6.265m-1.52 9.13h-2.162V66.17h2.162c1.704 0 3.532.659 3.532 2.952 0 2.18-1.819 2.953-3.532 2.953M20.264 62.945c-4.473 0-8.102 3.708-8.102 8.277 0 4.57 3.629 8.278 8.102 8.278 4.472 0 8.101-3.708 8.101-8.278 0-4.578-3.629-8.277-8.101-8.277m0 13.128c-2.628 0-4.754-2.17-4.754-4.85s2.126-4.851 4.754-4.851 4.753 2.17 4.753 4.85-2.126 4.851-4.753 4.851M11.81 63.015v3.69H7.83v12.716H4.006V66.706H0v-3.69zM56.396 66.143h-7.654v3.366h6.02v3.093h-6.02v3.585h7.654v3.243H44.91V63.015h11.485zM70.72 63.015v16.406h-3.216l-6.292-11.08q.014.42.027.553c.035.281.044.518.044.712v9.824h-2.935V63.015h4.06l5.465 9.675c-.044-.483-.07-.844-.07-1.09v-8.585zM33.285 63.015l.018 6.687 6.151-6.704 3.462-.01-5.747 7.198 6.354 9.217-3.981.01-4.78-6.67-1.441 1.388.008 5.299-3.55.009-.044-16.415z"/><g fill="#fff" clip-path="url(#a)"><path d="M72.883.188H44.41A2.406 2.406 0 0 0 42 2.596v9.775a2.406 2.406 0 0 0 2.408 2.408h9.166v33.83a2.406 2.406 0 0 0 2.408 2.408H66.24a2.406 2.406 0 0 0 2.408-2.408v-33.83h4.194c4.023 0 7.296-3.272 7.296-7.296.042-4.023-3.23-7.295-7.254-7.295"/><path fill-rule="evenodd" d="M100.594.188c-11.135 0-20.173 9.038-20.173 20.173v28.177a2.406 2.406 0 0 0 2.408 2.408h10.795a2.406 2.406 0 0 0 2.408-2.408v-8.517l.013.003.049.007c.538.128 1.042.22 1.608.304a20 20 0 0 0 2.437.199h.455c.396 0 .779-.014 1.162-.028 10.596-.61 19.011-9.393 19.011-20.145.014-11.135-9.024-20.173-20.173-20.173m1.162 24.564c-.369.1-.766.156-1.162.156-.109 0-.205-.002-.313-.014a4.54 4.54 0 0 1-4.235-4.413v-.12a4.553 4.553 0 0 1 4.548-4.548 4.553 4.553 0 0 1 4.547 4.548 4.53 4.53 0 0 1-3.385 4.391" clip-rule="evenodd"/></g><defs><clipPath id="a"><path fill="#fff" d="M42 0h78.75v51H42z"/></clipPath></defs></svg>
